X: 64
M:6/8
L:1/8
K:G
cAA ece|dcd GBd|f/2g/2af gfe|dBG A2:|
|:B|def g2 f|edc Bcd|efg aga|bgg e2 f|
gfa gfe|dcd Bcd|cBc age|dBG A2:||

